X:1
T:Violin Caprice No. 22 in F Major
T:Violin Caprice No. 22 in F Major
T:Op. 1, No. 22
T:Niccolò Paganini
C:Niccolò Paganini
L:1/8
Q:1/4=90
M:6/8
K:F
V:1 treble nm="Violin" snm="Vln."
V:1
"^Marcato"!f! [af']3 [ge']3 | [af']3 F3 | (.[FA].[GB].[Ac] .[Bd].[ce].[df]) | %3
 (.[Ac]2 .[GB]) [FA]2 z | [af']3 [ge']3 | [af']3 F3 | F(.[fa].[eg] .[df].[ce].[=Bd]) | %7
 [ce]2 G C2 z ||!p! (.[Ac].[GB].[FA] .[fa'].[gb'].[ac'']) | %9
 (.[DF].[C_E].[B,D] .[Bd'].[c=e'].[df']) | (.[=Bd].[Ac].[GB] .[g=b'].[ac''].[=bd'']) | %11
 (.[EG].[DF].[CE] .[ce'].[df'].[eg']) |!f! [fa'][gb'][ac''] [bd''][ac''][^g=b'] | [ac'']3 [fa']3 | %14
!p! [Af][Bg][ca] [Bg][Af][Ge] | ([FA]3 f) z z || (.[Ac].[GB].[FA]) (.[FAf].[GBf].[Acf]) | %17
 (.[DF].[C_E].[B,D]) (.[B,DB].[CEB].[DFB]) | (.[=Bd].[Ac].[GB]) (.[GBg].[Acg].[Bdg]) | %19
 (.[EG].[DF].[CE]) (.[CEc].[DFc].[EGc]) |!f! [FAf][GBf][Acf] [Bdf][Acf][^G=Bf] | [Acf]3 [FAf]3 | %22
!p! [A,F][B,G][CA] [B,G][A,F][G,E] | [A,F]3 z3!fine! |: %24
!f![Q:1/4=110]"^Minore" D/"_martellato"(.a/.g/.f/.e/.d/ .^c/.B/.A/.G/.F/.E/) | %25
 (TD/^C/D/).F/.A/.d/ f/a/d'/f'/e'/d'/ | g'/e'/^c'/a/g/e/ f'/d'/a/f/e/d/ | %27
 ^c/a/e/c/A/E/ ^C/A,/^G,/A,/=B,/C/ | D/(.a/.g/.f/.e/.d/ .^c/.B/.A/.G/.F/.E/) | %29
 (TD/^C/D/).F/.A/.d/ f/a/d'/f'/e'/d'/ | (b/g/e/)b/a/g/ f/e/d/a/A/^c/ | %31
 (d/^c/d/)A/^G/=G/ ^F/=F/E/G/F/E/ :: D/d/D/^f/D/a/ D/d'/D/^f'/D/a'/ | %33
 (TG/^F/G/)d'/b/^f/ (Tg/f/g/)d/B/G/ | C/c/C/e/C/g/ C/c'/C/e'/C/g'/ | %35
 (TF/E/F/)c'/a/e/ (Tf/e/f/)c/A/F/ | G,/_E/G,/G/G,/B/ G,/_e/G,/g/G,/b/ | %37
 ^G,/D/G,/F/G,/^G/ G,/=B/G,/d/G,/^g/ | (TA,/^G,/A,/)a/e/^c/ (TA/^G/A/)E/^C/E/ | %39
 (TA,/^G,/A,/).G,/.A,/.G,/ (TA,/G,/A,/).G,/.A,/.A,/ | %40
 (TB,/A,/B,/).A,/.B,/.A,/ (TB,/A,/B,/).A,/.B,/.A,/ | B,/D/B,/F/B,/B/ B,/d/B,/f/B,/b/ | %42
 (Tg/^f/g/)E/=f/D/ (T_e/d/e/)C/d/B,/ | (Td/^c/d/)A,/d/^G,/ (Td/c/d/)A,/d/B,/ | %44
 (TA,/^G,/A,/)d/A,/f/ (TA,/G,/A,/)^c/A,/e/ | (TD/^C/D/)d/D/f/ D/a/D/d'/D/f'/ | %46
 (TD/^C/D/)a/D/d'/ D/f'/D/a'/D/d''/ | (TD/^C/D/).C/.D/.C/ (TD/C/D/).C/.D/.C/ |1 %48
 D/(.a/.g/.f/.e/.d/ .^c/.B/.A/.G/.F/.E/) :|2 D3 z3!D.C.! |] %50

